themes/_common/_version_insensitive/metacity-1/maximize-focus-normal.svg

<svg id="svg2" width="16" height="21" version="1.1" xmlns="http://www.w3.org/2000/svg">
 <path id="path2987" d="m7 8h2v3h3v2h-3v3h-2v-3h-3l0.03146-2h2.96854v-3" style="fill:#ffffff"/>
 <path id="path3777" d="m7 7h2v3h3v2h-3v3h-2v-3h-3l0.03146-2h2.96854v-3" style="fill:#999999"/>
</svg>

<?xml version="1.0" encoding="UTF-8" standalone="no"?>
<svg
   xmlns:dc="http://purl.org/dc/elements/1.1/"
   xmlns:cc="http://creativecommons.org/ns#"
   xmlns:rdf="http://www.w3.org/1999/02/22-rdf-syntax-ns#"
   xmlns:svg="http://www.w3.org/2000/svg"
   xmlns="http://www.w3.org/2000/svg"
   xmlns:sodipodi="http://sodipodi.sourceforge.net/DTD/sodipodi-0.dtd"
   xmlns:inkscape="http://www.inkscape.org/namespaces/inkscape"
   height="21"
   width="16"
   version="1.1"
   id="svg2"
   inkscape:version="0.48.5 r10040"
   sodipodi:docname="maximize-focus-normal.svg">
  <metadata
     id="metadata17">
    <rdf:RDF>
      <cc:Work
         rdf:about="">
        <dc:format>image/svg+xml</dc:format>
        <dc:type
           rdf:resource="http://purl.org/dc/dcmitype/StillImage" />
        <dc:title />
      </cc:Work>
    </rdf:RDF>
  </metadata>
  <sodipodi:namedview
     pagecolor="#ffffff"
     bordercolor="#666666"
     borderopacity="1"
     objecttolerance="10"
     gridtolerance="10"
     guidetolerance="10"
     inkscape:pageopacity="0"
     inkscape:pageshadow="2"
     inkscape:window-width="1015"
     inkscape:window-height="739"
     id="namedview15"
     showgrid="true"
     inkscape:zoom="31.786133"
     inkscape:cx="3.6307729"
     inkscape:cy="10.07591"
     inkscape:window-x="300"
     inkscape:window-y="128"
     inkscape:window-maximized="0"
     inkscape:current-layer="svg2"
     inkscape:snap-bbox="true"
     inkscape:snap-global="true">
    <inkscape:grid
       type="xygrid"
       id="grid3754" />
  </sodipodi:namedview>
  <defs
     id="defs4">
    <linearGradient
       id="a"
       y2="12.083"
       gradientUnits="userSpaceOnUse"
       x2="11.17"
       gradientTransform="matrix(.70711 .70711 -.70711 .70711 10.121 -2.435)"
       y1="7.8436"
       x1="6.9308">
      <stop
         offset="0"
         id="stop7" />
      <stop
         stop-color="#646464"
         offset="1"
         id="stop9" />
    </linearGradient>
  </defs>
  <path
     sodipodi:nodetypes="ccccccccccccc"
     inkscape:connector-curvature="0"
     id="path2987"
     d="m 7,8 2,0 0,3 3,0 0,2 -3,0 0,3 -2,0 0,-3 -3,0 0.03146,-2 L 7,11 7,8"
     style="fill:#ffffff;fill-opacity:1;stroke:none" />
  <path
     style="fill:#999999;fill-opacity:1;stroke:none"
     d="m 7,7 2,0 0,3 3,0 0,2 -3,0 0,3 L 7,15 7,12 4,12 4.03146,10 7,10 7,7"
     id="path3777"
     inkscape:connector-curvature="0"
     sodipodi:nodetypes="ccccccccccccc" />
</svg>
